themes/default/assets/images/icons/mid/future.svg

<?xml version="1.0" encoding="UTF-8"?>
<svg width="100px" height="75px" viewBox="0 0 100 75" version="1.1" xmlns="http://www.w3.org/2000/svg" xmlns:xlink="http://www.w3.org/1999/xlink">
    <!-- Generator: sketchtool 59 (101010) - https://sketch.com -->
    <title>F4AFCBC6-6B38-4D7E-A353-5694F9835F22</title>
    <desc>Created with sketchtool.</desc>
    <g id="Page-1" stroke="none" stroke-width="1" fill="none" fill-rule="evenodd">
        <g id="Icons" transform="translate(-1093.000000, -2286.000000)" fill-rule="nonzero">
            <g id="mid-icon-future" transform="translate(1093.000000, 2286.000000)">
                <path d="M96.34,-1.37556313e-05 L3.66,-1.37556313e-05 C2.69195871,-0.00265580106 1.76251125,0.379351955 1.07612732,1.06198516 C0.38974338,1.74461836 0.00264853484,2.67195869 0,3.64 L0,58.24 C0.00264853484,59.2080413 0.38974338,60.1353816 1.07612732,60.8180148 C1.76251125,61.500648 2.69195871,61.8826558 3.66,61.88 L43.34,61.88 L43.07,74.29 C43.0646253,74.4747173 43.13357,74.6538712 43.2613902,74.7873305 C43.3892103,74.9207898 43.5652228,74.9974 43.75,75.0000001 L43.75,75.0000001 C44.1289216,75.0000001 44.4391737,74.698767 44.45,74.32 L45,50.65 C45.1611227,49.8255723 44.9322807,48.9729515 44.38,48.34 C43.7527035,47.7643508 42.9202169,47.4652322 42.07,47.51 C35.74,47.51 33.77,45.65 33.73,45.62 L23.73,36.26 C23.2859965,35.8531634 23.0051949,35.2986692 22.94,34.7 C22.9639702,34.0100175 23.2803055,33.3628027 23.81,32.92 C24.2854391,32.4012431 24.9470587,32.0920079 25.65,32.06 C26.4047311,32.1116736 27.1152092,32.4349411 27.65,32.97 L35.83,40.9 C36.25,41.38 38.43,43.09 48.29,43.09 L56.68,43.09 C66.55,43.09 68.73,41.38 69.15,40.9 L77.28,33 C77.8172953,32.4715174 78.5277228,32.1553771 79.28,32.11 C79.9853979,32.1318697 80.650763,32.4428556 81.12,32.97 C81.6403063,33.4158452 81.954814,34.0557058 81.99,34.74 C81.9268595,35.3544144 81.6339829,35.9223093 81.17,36.33 L71.17,45.69 C71.17,45.69 69.17,47.56 62.9,47.57 C62.0331382,47.5001982 61.1768207,47.7977323 60.54,48.39 C59.9903638,48.9965661 59.7571268,49.8258532 59.91,50.63 L60.14,61.19 L60.14,61.19 L60.42,74.28 C60.4412514,74.6619434 60.7574662,74.9605908 61.14,74.96 C61.5226837,74.9491031 61.8256242,74.6327975 61.82,74.25 L61.57,61.84 L96.37,61.84 C98.3586807,61.8292892 99.9727862,60.2285233 100,58.24 L100,3.64 C99.9973515,2.67195869 99.6102566,1.74461836 98.9238727,1.06198516 C98.2374887,0.379351955 97.3080413,-0.00265580106 96.34,-1.37556313e-05 Z M98.6,58.24 C98.5944944,59.4842565 97.5842687,60.49 96.34,60.49 L61.51,60.49 L61.26,50.49 C61.1623966,50.0790757 61.2541418,49.6460384 61.51,49.31 C61.8753356,49.0143866 62.3422721,48.8743056 62.81,48.92 C69.81,48.92 72.04,46.71 72.1,46.64 L82.1,37.33 C82.8404148,36.669148 83.2986482,35.7491013 83.38,34.76 C83.3832437,33.6815518 82.9157977,32.6553617 82.1,31.95 C81.3551428,31.1666962 80.3304958,30.7100991 79.25,30.68 C78.1334042,30.7361362 77.0779169,31.2068265 76.29,32 L68,40 C68,40 66.29,41.7 56.62,41.7 L48.23,41.7 C38.62,41.7 36.85,40 36.84,40 L28.59,32 C27.8100868,31.2114863 26.7669759,30.7379923 25.66,30.67 C24.5787611,30.6968187 23.5529148,31.1539502 22.81,31.94 C21.9958895,32.6475557 21.5258681,33.6714006 21.52,34.75 C21.5981115,35.7299471 22.0490783,36.6426179 22.78,37.3 L32.73,46.61 C32.82,46.7 35.02,48.9 42.09,48.9 L42.09,48.9 C42.5420359,48.8722543 42.9880495,49.0149787 43.34,49.3 C43.599004,49.6614966 43.6867077,50.1182868 43.58,50.55 L43.36,60.49 L3.66,60.49 C2.4157313,60.49 1.40550561,59.4842565 1.4,58.24 L1.4,3.64 C1.40550561,2.39574348 2.4157313,1.39 3.66,1.39 L96.34,1.39 C97.5842687,1.39 98.5944944,2.39574348 98.6,3.64 L98.6,58.24 Z" id="Shape" fill="#A8C5DD"></path>
                <path d="M60.9,35.53 L59.07,35.53 C58.8017947,35.5622296 58.5389801,35.437257 58.3946963,35.2088822 C58.2504126,34.9805074 58.2504126,34.6894926 58.3946963,34.4611178 C58.5389801,34.232743 58.8017947,34.1077704 59.07,34.14 L60.81,34.14 L60.81,29.29 L59.22,29.29 C58.8334007,29.29 58.52,28.9765993 58.52,28.59 C58.52,28.2034007 58.8334007,27.89 59.22,27.89 L60.9,27.89 C61.66,27.89 62.21,28.32 62.21,28.89 L62.21,34.53 C62.21,35.11 61.66,35.53 60.9,35.53 Z" id="Shape" fill="#032663"></path>
                <path d="M45.78,35.53 L44,35.53 C43.25,35.53 42.7,35.11 42.7,34.53 L42.7,28.89 C42.7,28.32 43.25,27.89 44,27.89 L45.66,27.89 C46.0465993,27.89 46.36,28.2034007 46.36,28.59 C46.36,28.9765993 46.0465993,29.29 45.66,29.29 L44.05,29.29 L44.05,34.14 L45.78,34.14 C46.0482053,34.1077704 46.3110199,34.232743 46.4553037,34.4611178 C46.5995874,34.6894926 46.5995874,34.9805074 46.4553037,35.2088822 C46.3110199,35.437257 46.0482053,35.5622296 45.78,35.53 L45.78,35.53 Z" id="Path" fill="#032663"></path>
                <path d="M52.43,39.69 C48.0803935,39.6349373 44.5936867,36.0739774 44.6302796,31.7241762 C44.6668724,27.3743751 48.2129949,23.8725792 52.5629122,23.8906315 C56.9128295,23.9088238 60.4296515,27.440045 60.43,31.79 C60.375256,36.1691762 56.8095184,39.6903422 52.43,39.69 Z M52.43,25.28 C48.8509902,25.3459838 45.9966993,28.2891777 46.0404872,31.8685278 C46.084275,35.447878 49.0097119,38.3203657 52.5892648,38.2988964 C56.1688176,38.2771853 59.0593918,35.3696179 59.06,31.79 C59.0215271,28.163759 56.0563388,25.2522393 52.43,25.28 L52.43,25.28 Z" id="Shape" fill="#A8C5DD"></path>
                <path d="M52.52,32 C49.9914961,32.0115726 47.4694778,31.7432727 45,31.2 C44.7588457,31.1410512 44.5674588,30.9579259 44.4979329,30.7196058 C44.4284069,30.4812857 44.4913045,30.2239771 44.6629329,30.0446058 C44.8345612,29.8652345 45.0888457,29.7910512 45.33,29.85 C49.9750178,30.8023882 54.7649822,30.8023882 59.41,29.85 C59.7844596,29.7681807 60.1562629,29.9983446 60.25,30.37 C60.3311677,30.7475405 60.095706,31.1207251 59.72,31.21 C57.355478,31.7320059 54.9414551,31.9968778 52.52,32 L52.52,32 Z" id="Path" fill="#032663"></path>
                <path d="M25.52,44.53 C19.8283492,44.4969084 15.2380483,39.8619368 15.2599983,34.1702324 C15.2821063,28.4785281 19.9081474,23.8792271 25.5998838,23.890174 C31.2916202,23.90116 35.9,28.518253 35.9,34.21 C35.9,34.5910765 35.5910765,34.9 35.21,34.9 C34.8289235,34.9 34.52,34.5910765 34.52,34.21 C34.5402483,30.5653581 32.3603533,27.2683172 28.9989375,25.8595205 C25.6375217,24.4507237 21.7582889,25.2083348 19.1739294,27.7783368 C16.5895698,30.3483388 15.8103593,34.2232907 17.2004078,37.5925027 C18.5904563,40.9617148 21.8753019,43.1599438 25.52,43.16 C25.7844889,43.127985 26.0437783,43.2510981 26.1861425,43.4762909 C26.3285067,43.7014836 26.3285067,43.9885164 26.1861425,44.2137091 C26.0437783,44.4389019 25.7844889,44.562015 25.52,44.53 L25.52,44.53 Z" id="Path" fill="#2969F6"></path>
                <path d="M38.87,25.27 C38.6479209,25.2755447 38.4363933,25.1753474 38.3,25 C37.2507777,23.5224289 35.9511949,22.2397678 34.46,21.21 C34.1479591,20.9890861 34.0740861,20.5570409 34.295,20.245 C34.5159139,19.9329591 34.9479591,19.8590861 35.26,20.08 C36.8734964,21.207024 38.2835955,22.6002155 39.43,24.2 C39.5507869,24.3513963 39.6012855,24.5471141 39.5688263,24.7380505 C39.5363671,24.9289868 39.4240304,25.0970227 39.26,25.2 C39.1404534,25.2633536 39.004117,25.2878242 38.87,25.27 L38.87,25.27 Z" id="Path" fill="#2969F6"></path>
                <path d="M9.11,31.9 L9,31.9 C8.81909783,31.8733026 8.65696787,31.7738251 8.55121833,31.6246427 C8.44546879,31.4754603 8.40528929,31.2895369 8.44,31.11 C9.35401543,26.0931107 12.4385213,21.7366482 16.8669324,19.2080563 C21.2953436,16.6794644 26.614875,16.2372802 31.4,18 C31.5728797,18.0630085 31.7134318,18.1924582 31.790421,18.3595813 C31.8674103,18.5267044 31.8744588,18.7176557 31.81,18.89 C31.6704497,19.2421992 31.2760294,19.4194668 30.92,19.29 C26.525899,17.6587778 21.6354619,18.0533856 17.5597519,20.3680339 C13.4840419,22.6826823 10.6399717,26.6806012 9.79,31.29 C9.7496515,31.6357496 9.45808553,31.8973015 9.11,31.9 L9.11,31.9 Z" id="Path" fill="#2969F6"></path>
                <path d="M19.8,50.23 C19.7206142,50.2440199 19.6393858,50.2440199 19.56,50.23 C14.0634944,48.2899438 9.9379165,43.6778947 8.62,38 C8.5261116,37.6189235 8.75892353,37.2338884 9.14,37.14 C9.52107648,37.0461116 9.90611159,37.2789235 10,37.66 C11.2090425,42.8591155 14.975299,47.0886214 20,48.89 C20.3587824,49.0172506 20.546723,49.4110309 20.42,49.77 C20.3242083,50.0337384 20.0801832,50.2147893 19.8,50.23 L19.8,50.23 Z" id="Path" fill="#2969F6"></path>
                <path d="M25.38,51.19 C24.89,51.19 24.38,51.19 23.93,51.13 C23.6697915,51.1288722 23.432347,50.9814542 23.3159164,50.7487449 C23.1994859,50.5160355 23.2238729,50.2376163 23.3789868,50.0286919 C23.5341006,49.8197675 23.7935578,49.7158738 24.05,49.76 C24.8256927,49.8150062 25.6043073,49.8150062 26.38,49.76 C26.5630757,49.7490782 26.7429672,49.8114911 26.8799394,49.9334527 C27.0169116,50.0554142 27.0996935,50.2268886 27.11,50.41 C27.1237122,50.5910855 27.0633279,50.7699803 26.9426769,50.9057128 C26.8220258,51.0414452 26.6514443,51.1223869 26.47,51.13 C26.11,51.18 25.75,51.19 25.38,51.19 Z" id="Path" fill="#2969F6"></path>
                <path d="M69.59,34.91 C69.4043485,34.91 69.2263007,34.8362502 69.0950253,34.7049747 C68.9637498,34.5736993 68.89,34.3956515 68.89,34.21 C68.8932014,32.5266087 69.3049915,30.8691535 70.09,29.38 C70.1808676,29.2055968 70.3391179,29.0759512 70.5279916,29.0211778 C70.7168653,28.9664044 70.9199239,28.9912705 71.09,29.09 C71.4276471,29.2711511 71.5568991,29.6901059 71.38,30.03 C70.7139827,31.3221267 70.3708661,32.7563538 70.38,34.21 C70.3816804,34.4123514 70.2957109,34.6055292 70.144255,34.7397306 C69.9927991,34.873932 69.7906779,34.9360245 69.59,34.91 Z" id="Path" fill="#032663"></path>
                <path d="M72.55,28.0000135 C72.3616573,28.0011753 72.1810199,27.9253076 72.05,27.79 C71.7754444,27.5132022 71.7754444,27.0667978 72.05,26.79 C75.3486399,23.6447298 80.3041788,22.9974757 84.3,25.19 C84.6361257,25.378384 84.7568042,25.8029938 84.57,26.14 C84.4777287,26.3131671 84.3179082,26.4404282 84.1284753,26.4915751 C83.9390423,26.5427219 83.7368888,26.5131939 83.57,26.41 C80.1260074,24.506967 75.8450292,25.0618337 73,27.78 C72.8828531,27.9071121 72.722262,27.9856233 72.55,28.0000135 L72.55,28.0000135 Z" id="Path" fill="#032663"></path>
                <path d="M89,34.91 C88.8152548,34.91 88.6382179,34.8359521 88.5085265,34.704381 C88.378835,34.57281 88.3073225,34.3947258 88.31,34.21 C88.3032463,32.1816959 87.5968256,30.2178466 86.31,28.65 C86.1861904,28.5051709 86.12778,28.3155919 86.1486134,28.1261975 C86.1694468,27.936803 86.2676693,27.7644536 86.42,27.65 C86.5659817,27.5289704 86.7548201,27.472345 86.9433113,27.493079 C87.1318025,27.5138131 87.303817,27.6101323 87.42,27.76 C88.8904899,29.5757105 89.6888208,31.8435353 89.68,34.18 C89.6881093,34.3673705 89.6206917,34.5501586 89.4928598,34.6873899 C89.3650278,34.8246213 89.1874742,34.9048169 89,34.91 L89,34.91 Z" id="Path" fill="#032663"></path>
                <path d="M79.28,44.54 C78.5511949,44.5381483 77.8243472,44.4644587 77.11,44.32 C76.8156741,44.3340734 76.5440481,44.1623238 76.4305642,43.8903914 C76.3170803,43.618459 76.3860397,43.3045749 76.6030568,43.1052526 C76.8200739,42.9059303 77.1386772,42.8638522 77.4,43 C80.9887563,43.7682572 84.6845161,42.2804567 86.74,39.24 C86.8456703,39.0800413 87.0115361,38.9696132 87.1998774,38.9338284 C87.3882187,38.8980435 87.5830268,38.9399436 87.74,39.05 C87.9022611,39.153775 88.0145929,39.3198234 88.0505453,39.5090464 C88.0864977,39.6982694 88.0428935,39.8939456 87.93,40.05 C86.6008156,42.0151379 84.6385632,43.4656518 82.37,44.16 C81.3654503,44.4437264 80.3233621,44.5718796 79.28,44.54 Z" id="Path" fill="#032663"></path>
            </g>
        </g>
    </g>
</svg>

<svg width="100" height="75" xmlns="http://www.w3.org/2000/svg"><g fill-rule="nonzero" fill="none"><path d="M96.34 0H3.66A3.65 3.65 0 000 3.64v54.6a3.65 3.65 0 003.66 3.64h39.68l-.27 12.41a.69.69 0 00.68.71.7.7 0 00.7-.68L45 50.65a2.72 2.72 0 00-.62-2.31 3.17 3.17 0 00-2.31-.83c-6.33 0-8.3-1.86-8.34-1.89l-10-9.36a2.48 2.48 0 01-.79-1.56 2.43 2.43 0 01.87-1.78 2.66 2.66 0 011.84-.86 3.13 3.13 0 012 .91l8.18 7.93c.42.48 2.6 2.19 12.46 2.19h8.39c9.87 0 12.05-1.71 12.47-2.19l8.13-7.9a3.12 3.12 0 012-.89 2.57 2.57 0 011.84.86 2.5 2.5 0 01.87 1.77 2.45 2.45 0 01-.82 1.59l-10 9.36s-2 1.87-8.27 1.88a3.1 3.1 0 00-2.36.82 2.61 2.61 0 00-.63 2.24l.23 10.56.28 13.09a.72.72 0 00.72.68.7.7 0 00.68-.71l-.25-12.41h34.8a3.65 3.65 0 003.63-3.6V3.64A3.65 3.65 0 0096.34 0zm2.26 58.24a2.26 2.26 0 01-2.26 2.25H61.51l-.25-10a1.41 1.41 0 01.25-1.18 1.79 1.79 0 011.3-.39c7 0 9.23-2.21 9.29-2.28l10-9.31a3.87 3.87 0 001.28-2.57 3.7 3.7 0 00-1.28-2.81 4.09 4.09 0 00-2.85-1.27A4.49 4.49 0 0076.29 32L68 40s-1.71 1.7-11.38 1.7h-8.39c-9.61 0-11.38-1.7-11.39-1.7l-8.25-8a4.51 4.51 0 00-2.93-1.33 4.06 4.06 0 00-2.85 1.27 3.75 3.75 0 00-1.29 2.81 3.84 3.84 0 001.26 2.55l9.95 9.31c.09.09 2.29 2.29 9.36 2.29a1.81 1.81 0 011.25.4c.259.361.347.818.24 1.25l-.22 9.94H3.66a2.26 2.26 0 01-2.26-2.25V3.64a2.26 2.26 0 012.26-2.25h92.68a2.26 2.26 0 012.26 2.25v54.6z" fill="#A8C5DD"/><path d="M60.9 35.53h-1.83a.7.7 0 110-1.39h1.74v-4.85h-1.59a.7.7 0 010-1.4h1.68c.76 0 1.31.43 1.31 1v5.64c0 .58-.55 1-1.31 1zM45.78 35.53H44c-.75 0-1.3-.42-1.3-1v-5.64c0-.57.55-1 1.3-1h1.66a.7.7 0 010 1.4h-1.61v4.85h1.73a.7.7 0 110 1.39z" fill="#032663"/><path d="M52.43 39.69a7.9 7.9 0 118-7.9 8 8 0 01-8 7.9zm0-14.41a6.51 6.51 0 106.63 6.51 6.58 6.58 0 00-6.63-6.51z" fill="#A8C5DD"/><path d="M52.52 32a34.27 34.27 0 01-7.52-.8.695.695 0 11.33-1.35 35.05 35.05 0 0014.08 0 .71.71 0 01.84.52.71.71 0 01-.53.84 33.6 33.6 0 01-7.2.79z" fill="#032663"/><path d="M25.52 44.53c-5.692-.033-10.282-4.668-10.26-10.36.022-5.691 4.648-10.29 10.34-10.28 5.692.011 10.3 4.628 10.3 10.32a.69.69 0 11-1.38 0 9 9 0 10-9 8.95.69.69 0 110 1.37zM38.87 25.27a.7.7 0 01-.57-.27 15.54 15.54 0 00-3.84-3.79.692.692 0 11.8-1.13 17.36 17.36 0 014.17 4.12.68.68 0 01-.17 1 .65.65 0 01-.39.07z" fill="#2969F6"/><path d="M9.11 31.9H9a.67.67 0 01-.56-.79A17.27 17.27 0 0131.4 18a.69.69 0 01.41.89.7.7 0 01-.89.4 15.87 15.87 0 00-21.13 12 .69.69 0 01-.68.61zM19.8 50.23a.69.69 0 01-.24 0A17.06 17.06 0 018.62 38a.71.71 0 111.38-.34 15.71 15.71 0 0010 11.23.69.69 0 01-.2 1.34zM25.38 51.19c-.49 0-1 0-1.45-.06a.69.69 0 11.12-1.37 16.47 16.47 0 002.33 0 .69.69 0 01.73.65.67.67 0 01-.64.72c-.36.05-.72.06-1.09.06z" fill="#2969F6"/><path d="M69.59 34.91a.7.7 0 01-.7-.7 10.4 10.4 0 011.2-4.83.72.72 0 011-.29.7.7 0 01.29.94 9 9 0 00-1 4.18.7.7 0 01-.79.7zM72.55 28a.71.71 0 01-.5-1.21 10.46 10.46 0 0112.25-1.6.7.7 0 01.27.95.71.71 0 01-1 .27A9 9 0 0073 27.78a.69.69 0 01-.45.22zM89 34.91a.69.69 0 01-.69-.7 8.81 8.81 0 00-2-5.56.69.69 0 01.11-1 .7.7 0 011 .11 10.14 10.14 0 012.26 6.42.7.7 0 01-.68.73zM79.28 44.54a11.09 11.09 0 01-2.17-.22.7.7 0 11.29-1.32 9 9 0 009.34-3.76.71.71 0 011-.19.7.7 0 01.19 1 10.38 10.38 0 01-5.56 4.11 10.22 10.22 0 01-3.09.38z" fill="#032663"/></g></svg>
